!!!COM: Scarlatti, Domenico
!!!CDT: 1685///-1757///
!!!OTL: Sonata in G Minor, K.450, L.338
!!!SCT: K. 450
!!!SCT: L. 338
**kern	**kern	**dynam
*staff2	*staff1	*staff1
*Icemba	*Icemba	*Icemba
*>[A,A,B,B]	*>[A,A,B,B]	*>[A,A,B,B]
*>norep[A,B]	*>norep[A,B]	*>norep[A,B]
*>A	*>A	*>A
*clefG2	*clefG2	*clefG2
*k[b-e-]	*k[b-e-]	*k[b-e-]
*g:	*g:	*g:
*met(C)	*met(C)	*met(C)
*M4/4	*M4/4	*M4/4
*MM112	*MM112	*MM112
=1-	=1-	=1-
*^	*^	*
(8g/L	2g^\	(2gg/	8gg\L	f
8b-/)	.	.	16dd\L)	.
.	.	.	16dd'\JJ	.
8b-'/	.	.	8dd'\L	.
8b-'/J	.	.	8dd'\J	.
(8cc/L	2g^\	2gg/	(8ee-\L	.
8b-/)	.	.	16dd\L)	.
.	.	.	16dd'\JJ	.
8b-'/	.	.	8dd'\L	.
8b-'/J	.	.	8dd'\J	.
*v	*v	*	*	*
*	*v	*v	*
=2	=2	=2
8g'/ 8cc'/L	8ee-\ (8gg\L	.
8g'/ 8cc'/J	16ff#\L	.
.	16gg\JJ	.
8f#'/ 8a'/L	8aa\L	.
8d'/ 8a'/J	16dd\L	.
.	(16cc\JJ)	.
8g'/L	8b-\L	.
8e-'/J	16a\L	.
.	16b-\JJ	.
8c'/L	8a/ 8cc/L	.
8d'/J	16g/ 16b-/L	.
.	16f#/) 16a/JJ	.
=3	=3	=3
*^	*^	*
(8g/L	2g^\	(2gg^/	8gg\L	.
8b-/)	.	.	16dd\L)	.
.	.	.	16dd'\JJ	.
8b-'/	.	.	8dd'\L	.
8b-'/J	.	.	8dd'\J	.
(8cc/L	2g^\	2gg^/	(8ee-\L	.
8b-/)	.	.	16dd\L)	.
.	.	.	16dd'\JJ	.
8b-'/	.	.	8dd'\L	.
8b-'/J	.	.	8dd'\J	.
*v	*v	*	*	*
*	*v	*v	*
=4	=4	=4
8g'/ 8cc'/L	8ee-\ (8gg\L	.
8g'/ 8cc'/J	16ff#\L	.
.	16gg\JJ	.
8f#'/ 8a'/L	8aa\L	.
8d'/ 8a'/J	16dd\L	.
.	16cc\JJ)	.
8g'/L	(8b-\L	>
8e-'/J	16a\L	.
.	16b-\JJ	.
8c'/L	8a/ 8cc/L	.
8d'/J	16g/ 16b-/L	.
.	16f#/ 16a/JJ	.
=5	=5	=5
8G'/	8g'/L)	p
*clefF4	*	*
8G'\ 8g'\L	(16b-/L	.
.	16a/JJ	.
8Fn'\ 8fn'\	8b-'\L)	<
8E-'\ 8e-'\J	(16dd\L	.
.	16cc\JJ	.
8D'\ 8d'\L	8dd'\L)	.
8C'\ 8c'\	(16ff\L	.
.	16ee-\JJ	.
8BB-'\ 8B-'\	8ff'\L)	.
8FF'\ 8F'\J	16dd\ (16bb-\L	.
.	16cc\ 16aa\JJ	.
=6	=6	=6
*	*^	*
8BBB-'/ 8BB-'/	4r	8dd'\ 8bb-'\L)	f
*clefG2	*	*	*
8b-\ (8dd\L	.	(16ff\L	p
.	.	16een\JJ	.
8a'\ 8cc'\)	4r	8ff'\L)	.
8g\ 8b-\J	.	16aa\L	.
.	.	16gg\JJ	.
8f'/ 8a'/L	8aa'/L	4ff\	.
(8B-/ 8g/	(16bb-/L	.	.
.	16gg/JJ	.	.
8c'/) 8f'/	4r	8ff'\ 8aa'\L)	.
8c'/ 8g'/J	.	8ee'\ 8gg'\J	.
*	*v	*v	*
=7	=7	=7
8F'/	8a\ 8ff\L	.
*clefF4	*	*
8F'\ 8f'\L	(16cc\L	.
.	16bn\JJ	.
8E-'\ 8e-'\	8cc'\L)	.
8D'\ 8d'\J	(16ee-\L	.
.	16dd\JJ	.
8C'\ 8c'\L	8ee-'\L)	.
8AA-'\ 8A-'\J	(16gg\L	.
.	16ff\JJ	.
8GG'\ 8G'\L	8gg'\L)	.
8GG'\ 8G'\J	16ee-\ (16ccc\L	.
.	16dd\ 16bbn\JJ	.
=8	=8	=8
*	*^	*
8CC'/ 8C'/	4r	8ee-'\ 8ccc'\L)	f
*clefG2	*	*	*
8cc\ (8ee-\L	.	(16gg\L	p
.	.	16ff#\JJ	.
8b-'\ 8dd'\)	4r	8gg'\L)	.
8a\ (8cc\J	.	(16bb-\L	.
.	.	16aa\JJ	.
8g'/ 8b-'/L)	8bb-'/L)	4gg\	.
(8c/ 8a/	(16ccc/L	.	.
.	16aa/JJ	.	.
8d'/) 8g'/	4r	8gg'\ 8bb-'\L)	.
8d'/ 8a'/J	.	8ff#'\ 8aa'\J	.
=9	=9	=9	=9
8G'/	8gg'/L	8b-\	.
8g/ 8b-/L	([8bb-^/J	8cc#\L	mf
8f/ 8a/	8bb-/L]	8dd\	.
8en'/ 8g'/J	16aa/L	8een'\J	.
.	16gg/JJ	.	.
8d'/ 8a'/L	2r	8ff'\L)	.
8G/ 8g/	.	(16ee\L	.
.	.	16dd\JJ	.
8A'/ 8g'/	.	8cc#'\L)	.
8B-/ 8g/J	.	(16dd\L	.
.	.	32cc#\L	.
.	.	32dd\JJJ	.
*	*v	*v	*
=10	=10	=10
8A'/ 8g'/	8cc#'\ 8een'\)	.
8G'/ 8g'/L	16cc#\ (16ee\LL	p
.	16dd\ 16ff\JJ)	.
8G'/ 8g'/	8cc#'\ 8ee'\L	.
8A'/ 8a'/J	16cc#\ (16ee\L	.
.	16dd\ 16ff\JJ)	.
8B-'/ 8b-'/L	8cc#'\ 8ee'\L	.
8G'/ 8g'/	16cc#\ (16ee\L	.
.	16dd\ 16ff\JJ)	.
8G'/ 8g'/	8cc#'\ 8ee'\L	.
8A'/ 8a'/J	16cc#\ (16ee\L	.
.	16dd\ 16ff\JJ)	.
=11	=11	=11
8B-/ 8b-/	8cc#'\ 8een'\L	<
*clefF4	*	*
8C#'\ 8c#'\L	16ee\ (16gg\L	.
.	16ff\ 16aa\JJ)	.
8C#'\ 8c#'\	8ee'\ 8gg'\L	.
8D'\ 8d'\J	16ee\ (16gg\L	.
.	16ff\ 16aa\JJ)	.
8En'\ 8en'\L	8ee'\ 8gg'\L	.
8C#'\ 8c#'\	16ee\ (16gg\L	.
.	16ff\ 16aa\JJ)	.
8C#'\ 8c#'\	8ee'\ 8gg'\L	.
8D'\ 8d'\J	16ee\ (16gg\L	.
.	16ff\ 16aa\JJ)	.
=12	=12	=12
*	*^	*
8En'\ 8en'\	8gg'/L	8een\L	f
*clefG2	*	*	*
8F/ 8f/L	(8aa/J	16ff\L	.
.	.	16ee\JJ	.
8G'/ 8g'/	8bb-'/L)	8dd'\L	.
8A/ 8a/J	(16aa/L	8cc#\J	.
.	16gg/JJ	.	.
8B-'/ 8b-'/L	8ff/L	8dd\)	.
8G/ 8g/	(16ee/L	4dd^\	.
.	16ff/JJ	.	.
8A/ 8a/	8gg/L)	.	.
8A'/ 8a'/J	(16ff/L	8cc#\	.
.	16ee/JJ	.	.
*clefF4	*	*	*
*	*v	*v	*
=13	=13	=13
8D\ 8d\	8dd'\L)	.
*clefG2	*	*
8G'/ 8g'/L	16cc#\ (16een\L	pp
.	16dd\ 16ff\JJ)	.
8G'/ 8g'/	8cc#'\ 8ee'\L	.
8A'/ 8a'/J	16cc#'\ (16ee'\L	.
.	16dd\ 16ff\JJ)	.
8B-'/ 8b-'/L	8cc#'\ 8ee'\L	.
8G'/ 8g'/	16cc#\ (16ee\L	.
.	16dd\ 16ff\JJ)	.
8G'/ 8g'/	8cc#'\ 8ee'\L	.
8A'/ 8a'/J	16cc#\ (16ee\L	.
.	16dd\ 16ff\JJ)	.
=14	=14	=14
8B-'/ 8b-'/	8cc#'\ 8een'\L	<
*clefF4	*	*
8C#'\ 8c#'\L	16ee\ (16gg\L	.
.	16ff\ 16aa\JJ)	.
8C#'\ 8c#'\	8ee'\ 8gg'\L	.
8D'\ 8d'\J	16ee\ (16gg\L	.
.	16ff\ 16aa\JJ)	.
8En'\ 8en'\L	8ee'\ 8gg'\L	.
8C#'\ 8c#'\	16ee\ (16gg\L	.
.	16ff\ 16aa\JJ)	.
8C#'\ 8c#'\	8ee'\ 8gg'\L	.
8D'\ 8d'\J	16ee\ (16gg\L	.
.	16ff\ 16aa\JJ)	.
=15	=15	=15
*	*^	*
8En'\ 8en'\	8gg'/L	8een\L	.
*clefG2	*	*	*
8F/ 8f/L	(8aa/J	16ff\L	.
.	.	16ee\JJ	.
8G'/ 8g'/	8bb-'/L)	8dd'\L	.
8A/ 8a/J	(16aa/L	8cc#\J	.
.	16gg/JJ	.	.
8B-'/ 8b-'/L	8ff'/L)	8dd\	.
8G/ 8g/	16ee/L	(4dd^\	.
.	16ff/JJ	.	.
8A/ 8a/	8gg/L	.	.
8A'/ 8a'/J	16ff/L	8cc#\	.
.	16ee/JJ	.	.
*clefF4	*	*	*
*	*v	*v	*
=16	=16	=16
8D'\ 8d'\L	8dd'\L)	f
(8F'\ 8d'\J	(16ddd\L	.
.	16ff\JJ	.
8G'\) 8d'\ 8en'\L	8een'\L)	.
8G'\ 8d'\ 8e'\J	8ee'\J	.
8B-'\ 8d'\ 8e'\L	8ee'\L	.
(8F'\ 8d'\ 8e'\J	(16ddd\L	.
.	16ff\JJ	.
8G'\) 8d'\ 8e'\L	8ee'\L)	.
8A'\ 8d'\ 8e'\J	8ee'\J	.
=17	=17	=17
8B-'\ 8d'\ 8g'\L	(8gg\L	.
(8G'\ 8d'\ 8g'\J	16ff\L	.
.	16een\JJ	.
8A'\) 8d'\ 8f'\L	8dd\L)	.
8A'\ 8en'\J	8cc#'\J	.
8D'\ 8d'\L	8dd'\L	.
(8F'\ 8d'\J	(16ff\L	p
.	16a\JJ	.
8G'\) 8d'\ 8e'\L	8g'/L)	.
8A'\ 8d'\ 8e'\J	8g'/J	.
=18	=18	=18
8B-'\ 8d'\ 8en'\L	8g'\L	.
8F'\ 8d'\ 8e'\J	16ff\L	.
.	16a\JJ	.
8G'\ 8d'\ 8e'\L	8g'/L	.
8A'\ 8d'\ 8e'\J	8g'/J	.
8B-'\ 8d'\ 8g'\L	(8gg\L	mf
(8G'\ 8d'\ 8g'\J	16ff\L	>
.	16een\JJ	.
8A'\) 8d'\ 8f'\L	8dd\L)	.
8A'\ 8e'\J	8cc#'\J	.
=19	=19	=19
8D'\ 8d'\L	8dd'\L	.
(8D'\ 8d'\J	(16ff\L	f
.	16a\JJ	.
8G'\) 8d'\L	8b-'\L)	.
(8En\ 8c#\J	(16gg\L	.
.	16cc#\JJ	.
8F'\) 8d'\L	8aa'\L)	.
(8G\ 8en\J	(16bb-\L	.
.	16gg\JJ	.
8A'\) 8f'\L	8dd'\L)	.
8A'\ 8e'\J	8cc#'\J	.
=20	=20	=20
*^	*	*
4r	8D'\ 8d'\L	8dd'\L	.
.	(8D\ 8d\J	(16ff\L	.
.	.	16a\JJ	.
4r	8G'\) 8d'\L	8b-'\L)	.
.	8En\ (8c#\J	(16gg\L	.
.	.	16cc#\JJ	.
4d/)	8F\L	8dd'\L)	.
.	8G\J	(16b-\L	.
.	.	16g\JJ	.
4r	8A'\L	8d'/ 8f'/L)	.
.	8AA'\J	8c#'/ 8en'/J	.
*v	*v	*	*
=21	=21	=21
1DD^	1d^	.
=22:|!|:	=22:|!|:	=22:|!|:
*>B	*>B	*>B
*clefG2	*	*
8d'/ 8f#'/L	(8dd\L	p
8d'/ 8f#'/J	16a\L)	.
.	16a'\JJ	.
8d'/ 8f#'/L	8a'\L	.
8d'/ 8g'/J	8b-'\J	.
8c'/ 8g'/L	8a\ (8cc\L	.
8c'/ 8g'/	8b-\ 8dd\)	.
8c'/ 8g'/	8a'\ 8cc'\	.
8c'/ 8g'/J	8b-'\J	.
=23	=23	=23
8d'/ 8f#'/L	(8dd\L	.
8d'/ 8f#'/J	16a\L)	.
.	16a'\JJ	.
8d'/ 8f#'/L	8a'\L	.
8d'/ 8g'/J	8b-'\J	.
8c'/ 8g'/L	8a\ (8cc\L	.
8c'/ 8g'/	8b-\ 8dd\)	.
8c'/ 8g'/	8a'\ 8cc'\	.
8c'/ 8g'/J	8b-'\J	.
=24	=24	=24
*	*^	*
8d'/ 8f#'/L	4r	(8dd\L	<
8d'/ 8f#'/J	.	16a\L)	.
.	.	16a'\JJ	.
8d'/ 8f#'/L	4r	8a'\L	.
(8d/ 8f#/J	.	(8bn\J	.
8d#'/) 8f#'/L	8cc/L	4a\	.
8d#'/ 8f#'/J	16b/L	.	.
.	16cc/JJ	.	.
8d#'/ 8f#'/L	8a'/ 8cc'/L)	4r	.
8d#'/ 8f#'/J	8a'/ 8cc'/J	.	.
*	*v	*v	*
=25	=25	=25
8en'/L	8a/ (8cc/L	.
8e'/J	16g#/ 16bn/L	.
.	16a/ 16cc/JJ	.
8e'/L	8b'\ 8dd'\L)	.
(8e/J	8cc\ (8een\J	.
8d/L)	8dd\ 8ff\L)	f
(8d/J	16cc\ (16ee\L	.
.	16b\ 16dd\JJ	.
8e/L)	8a\ 8cc\L)	.
8e'/J	8g#'\ 8b'\J	.
=26	=26	=26
8A'/ 8en'/L	8a'\ 8cc'\L	p
8A'/ 8e'/J	(16cc\L	<
.	16dd\JJ)	.
8A'/ 8e'/L	8cc'\L	.
8A'/ 8e'/J	(16cc\L	.
.	16dd\JJ)	.
*clefF4	*	*
8G'\ 8B-'\ 8c'\ 8en'\L	8cc'\L	.
8G'\ 8B-'\ 8c'\ 8e'\J	(16cc\L	.
.	16dd\JJ)	.
8G'\ 8B-'\ 8c'\ 8e'\L	8cc'\L	.
8G'\ 8B-'\ 8c'\ 8e'\J	16cc\L	.
.	16dd\JJ	.
=27	=27	=27
8F'\ 8c'\ 8f'\L	8cc'\L	.
8F'\ 8B-'\ 8f'\J	8b-'\ 8dd-'\J	.
8F'\ 8B-'\ 8f'\L	8cc'\ 8ee-'\L	.
8F'\ 8B-'\ 8f'\J	8dd-'\ 8ff'\J	.
8E-'\ 8B-'\ 8c'\L	8ee-\ (8gg-\L	f
8E-'\ 8B-'\ 8c'\J	16dd-\ 16ff\L	.
.	16cc\ 16ee-\JJ	>
8F'\ 8f'\L	8b-'\ 8dd-'\L)	.
8F'\ 8f'\J	8a'\ 8cc'\J	.
=28	=28	=28
8B-'\ 8d-'\ 8f'\L	8b-'\ 8dd-'\L	.
8B-'\ 8d-'\ 8f'\J	(16b-\L	<
.	16cc\JJ	.
8B-'\ 8d-'\ 8f'\L	8b-'\ 8dd-'\L)	.
8B-'\ 8d-'\ 8f'\J	8cc'\ 8ee-'\J	.
8D-'\ 8d-'\L	8dd-'\ (8ff'\L	>
(8D-\ 8d-\J	16cc\ 16ee-\L	.
.	16b-\ 16dd-\JJ	.
8E-'\) 8e-'\L	8a-'/ 8cc'/L)	.
8E-'\ 8e-'\J	8g'/ 8b-'/J	.
=29	=29	=29
*	*^	*
8A-'\ 8e-'\L	4r	8a-'\ 8cc'\L	<
8A-\ (8f\J	.	8bn\ (8ddn\J	.
8G'\ 8e-'\L)	4r	8cc'\ 8ee-'\L)	.
8F'\ 8d'\J	.	8dd'\ 8ff'\J	.
8E-'\ 8c'\L	8gg/L	8ee-\L	.
8F\ (8f\J	(16aa-/L	8dd\J	.
.	16ff/JJ	.	.
8G'\ 8g'\L)	4r	8cc'\ 8ee-'\L)	.
8G'\ 8g'\J	.	8b'\ 8dd'\J	.
*	*v	*v	*
=30	=30	=30
8C'\ 8c'\	8cc'\ 8ee-'\L	f
*clefG2	*	*
(8cc/L	8ee-\ (8ff#\	.
8b-'/)	8dd'\ 8gg'\)	.
8an'/J	8cc'\ 8aan'\J	.
8g'/	8dd'\ 8bb-'\L	.
*clefF4	*	*
8c'\L	16ee-\ (16ccc\L	.
.	16dd\ 16bb-\JJ	.
8c'\	8cc'\ 8aa'\L)	.
8c'\J	8b-'\ 8gg'\J	.
=31	=31	=31
8D'\ 8d'\L	8a'\ 8ff#'\	.
8D'\ 8d'\J	(16f#/ 16a/LL	p
.	16g/) 16b-/JJ	.
8C'\ 8c'\L	8f#'/ 8a'/L	.
8D'\ 8d'\J	(16f#/ 16a/L	.
.	16g/) 16b-/JJ	.
8E-'\ 8e-'\L	8f#'/ 8a'/L	.
8C'\ 8c'\J	(16f#/ 16a/L	.
.	16g/) 16b-/JJ	.
8C'\ 8c'\L	8f#'/ 8a'/L	.
8D'\ 8d'\J	(16f#/ 16a/L	.
.	16g/) 16b-/JJ	.
=32	=32	=32
8E-'\ 8e-'\	8f#'/ 8a'/L	<
8FF#'/ 8F#'/L	16a/ 16cc/L	.
.	16b-/ 16dd/JJ	.
8FF#'/ 8F#'/	8a'\ 8cc'\L	.
8GG'/ 8G'/J	16a\ (16cc\L	.
.	16b-\ 16dd\JJ)	.
8AA'/ 8A'/L	8a'\ 8cc'\L	.
8FF#'/ 8F#'/	16a\ (16cc\L	.
.	16b-\ 16dd\JJ)	.
8FF#'/ 8F#'/	8a'\ 8cc'\L	.
8GG'/ 8G'/J	16a\ (16cc\L	.
.	16b-\ 16dd\JJ)	.
=33	=33	=33
*	*^	*
8AA'\ 8A'\L	8cc/L	8a\L	f
8BB-\ 8B-\	(8dd/J	16b-\L	.
.	.	16a\JJ	.
8C'\ 8c'\	8ee-'/L)	8g'\L	.
8D\ 8d\J	(16dd/L	8f#\J	.
.	16cc/JJ	.	.
8E-'\ 8e-'\L	8b-'/L)	4g\	.
8C\ 8c\	(16a/L	.	.
.	16b-/JJ	.	.
8D'\ 8d'\	8a'/ 8cc'/L)	4r	.
8D\ 8d\J	16g/ (16b-/L	.	.
.	16f#/ 16a/JJ	.	.
*	*v	*v	*
=34	=34	=34
8G'\	8g/)	.
*clefG2	*	*
8c'/ 8cc'/L	16ff#\ (16aa\LL	p
.	16gg\ 16bb-\JJ)	.
8c'/ 8cc'/	8ff#'\ 8aa'\L	.
8d'/ 8dd'/J	16ff#\ (16aa\L	.
.	16gg\ 16bb-\JJ)	.
8e-'/ 8ee-'/L	8ff#'\ 8aa'\L	.
8c'/ 8cc'/	16ff#\ (16aa\L	.
.	16gg\ 16bb-\JJ)	.
8c'/ 8cc'/	8ff#'\ 8aa'\L	.
8d'/ 8dd'/J	16ff#\ (16aa\L	.
.	16gg\ 16bb-\JJ)	.
=35	=35	=35
8e-/ 8ee-/	8ff#'\ 8aa'\L	<
*clefF4	*	*
8F#'\ 8f#'\L	16aa\ (16ccc\L	.
.	16bb-\ 16ddd\JJ)	.
8F#'\ 8f#'\	8aa'\ 8ccc'\L	.
8G'\ 8g'\J	16aa\ (16ccc\L	.
.	16bb-\ 16ddd\JJ)	.
8A'\ 8a'\L	8aa'\ 8ccc'\L	.
8F#'\ 8f#'\	16aa\ (16ccc\L	.
.	16bb-\ 16ddd\JJ)	.
8F#'\ 8f#'\	8aa'\ 8ccc'\L	.
8G'\ 8g'\J	16aa\ (16ccc\L	.
.	16bb-\ 16ddd\JJ)	.
=36	=36	=36
*	*^	*
8A'\ 8a'\	8ccc'/L	8aa\L	f
*clefG2	*	*	*
8B-/ 8b-/L	(8ddd/J	16bb-\L	.
.	.	16aa\JJ	.
8c'/ 8cc'/	8eee-'/L)	8gg\L	.
8d/ 8dd/J	(16ddd/L	8ff#\J	.
.	16ccc/JJ	.	.
8e-'/ 8ee-'/L	4r	8gg'\ 8bb-'\L)	.
8c/ 8cc/	.	16ff#\ (16aa\L	.
.	.	16gg\ 16bb-\JJ	.
8d'/ 8dd'/	4r	8aa'\ 8ccc'\L)	.
8d/ 8dd/J	.	16gg\ (16bb-\L	.
.	.	16ff#\ 16aa\JJ	.
=37	=37	=37	=37
8g/L	8r	8gg\L)	.
8g'/ 8cc'/J	(4ddd^/	16ddd\L	.
.	.	16ffn\JJ	.
8g'/ 8cc'/L	.	8ee-'\L)	.
8g/ 8cc/J	[8ccc^/	(8ee-\J	.
8f#/ 8cc/L	8ccc/]	8dd'\L)	.
8g'/ 8cc'/J	(4ddd^/	16ddd\L	.
.	.	16ff\JJ	.
8g'/ 8cc'/L	.	8ee-'\L)	.
8cc/J	[8ccc^/	(8ee-\J	.
=38	=38	=38	=38
8f#'/ 8cc'/L	8ccc/L]	4dd\)	.
(8g/J	(16bb-/L	.	.
.	16gg/JJ	.	.
8c'/) 8cc'/L	4r	8aa'\L)	.
8d'/ 8a'/J	.	8ff#'\J	.
8G'/ 8g'/L	4r	8gg'\L	.
(8B-/ 8g/J	.	(16gg\L	p
.	.	16b-\JJ	.
8c'/) 8g'/L	8a'/L)	4r	.
8d'/ 8g'/J	8a'/J	.	.
=39	=39	=39	=39
8e-'/ 8g'/L	4r	8a'\L	.
(8B-/ 8g/J	.	(16gg\L	.
.	.	16b-\JJ	.
8c'/) 8g'/L	8a'/L)	4r	.
8d'/ 8g'/J	8a'/J	.	<
8e-'/ 8g'/L	8cc'/L	8r	.
(8c/J	(16b-/L	4g\	mf
.	16a/JJ	.	.
8d/L)	8b-/L)	.	.
*clefF4	*	*	*
8D'/J	8a'/J	8f#'\	.
=40	=40	=40	=40
8G'\L	4r	8g'\L	f
(8B-\ 8g\J	.	(16gg\L	.
.	.	16dd\JJ	.
8c\) 8g\L	4r	8ee-'\L)	.
8A\ (8c\J	.	(16cc\L	.
.	.	16f#\JJ	.
8B-\ 8d\L)	8dd/L	4g\)	.
8c\ (8e-\J	16ee-/L	.	.
.	16cc/JJ	.	.
8d'\L)	8g'/ 8b-'/L	4r	.
8D'\J	8f#'/ 8a'/J	.	.
=41	=41	=41	=41
*^	*	*	*
4r	(8GG'\ 8G'\L	8g'/L	4r	.
.	8BB-\ 8G\J	(16dd/L	.	.
.	.	16d/JJ	.	.
4r	8C'\) 8G'\L	8e-'/L)	4r	.
.	8AA\ (8A\J	(16cc/L	.	.
.	.	16f#/JJ	.	.
4G/)	8BB-\L	4.g/	8g\L)	.
.	8C\J	.	(16e-\L	.
.	.	.	16c\JJ	.
8D'/L	4r	.	8B-'\L)	.
8DD'/J	.	8f#/	8A\ 8c\ 8d\J	.
*v	*v	*	*	*
*	*v	*v	*
=42	=42	=42
1GG^	1B-^ 1d^	.
==:|!	==:|!	==:|!
*-	*-	*-
!!!ENC: Craig Stuart Sapp
!!!END: 2004/10/30/
